src/assets/icons/notes-checkmark.svg

<svg fill="none" height="23" viewBox="0 0 23 23" width="23" xmlns="http://www.w3.org/2000/svg"><g fill="#000"><path d="m14.8298 11.5963c-2.8556 0-5.17023 2.3288-5.17023 5.2019 0 2.873 2.31463 5.2018 5.17023 5.2018s5.1702-2.3288 5.1702-5.2018c0-2.8731-2.3146-5.2019-5.1702-5.2019zm2.5731 7.7907c-.6869.6912-1.6013 1.0717-2.5731 1.0717s-1.8862-.3805-2.5732-1.0717c-.6869-.6911-1.0651-1.6111-1.0651-2.5888 0-.9778.3782-1.8977 1.0651-2.5889.687-.6912 1.6014-1.0717 2.5732-1.0717s1.8862.3805 2.5731 1.0717c.687.6912 1.0652 1.6111 1.0652 2.5889 0 .9777-.3782 1.8977-1.0652 2.5888zm-8.1263.3011h-5.5532v-16.95416h13.4043v8.28436c0 .106.0861.1927.1914.1927h1.3405c.1053 0 .1915-.0867.1915-.1927v-9.24766c0-.42626-.3423-.77064-.766-.77064h-15.31914c-.42367 0-.76596.34438-.76596.77064v18.88076c0 .4262.34229.7706.76596.7706h6.51064c.10532 0 .19149-.0867.19149-.1926v-1.3487c0-.1059-.08617-.1926-.19149-.1926z"/><path d="m15.9512 14.9893c.2821-.303.7563-.32 1.0595-.0381.3032.2821.3201.7563.0381 1.0595l-2.2373 2.4043c-.1728.1898-.4076.3051-.6553.3301-.2476.0249-.5001-.0403-.706-.1885l-.8887-.6396c-.3358-.2421-.4117-.7108-.1699-1.0469.242-.3358.7108-.4126 1.0469-.1709l.5508.3965z"/><path d="m15.0833 9.99999h-9.16663c-.2585.00131-.47606-.08966-.65267-.27278s-.26461-.40901-.264-.67766c.00061-.26866.08861-.49423.264-.67672.17539-.18248.39295-.27373.65267-.27373h9.16663c.2598 0 .4773.09125.6527.27373.1754.18249.2634.40806.264.67672.0006.26865-.0871.49422-.2631.67671-.176.18248-.3938.27373-.6536.27373z"/><path d="m15.0833 6.90088h-9.16663c-.2585.00127-.47606-.08966-.65267-.27277-.17661-.18312-.26461-.40901-.264-.67767s.08861-.49423.264-.67671c.17539-.18249.39295-.27373.65267-.27373h9.16663c.2598 0 .4773.09124.6527.27373.1754.18248.2634.40805.264.67671s-.0871.49423-.2631.67672c-.176.18248-.3938.27372-.6536.27372z"/></g></svg>

<svg width="23" height="23" viewBox="0 0 23 23" fill="none" xmlns="http://www.w3.org/2000/svg">
<path d="M14.8298 11.5963C11.9742 11.5963 9.65957 13.9251 9.65957 16.7982C9.65957 19.6712 11.9742 22 14.8298 22C17.6854 22 20 19.6712 20 16.7982C20 13.9251 17.6854 11.5963 14.8298 11.5963ZM17.4029 19.387C16.716 20.0782 15.8016 20.4587 14.8298 20.4587C13.858 20.4587 12.9436 20.0782 12.2566 19.387C11.5697 18.6959 11.1915 17.7759 11.1915 16.7982C11.1915 15.8204 11.5697 14.9005 12.2566 14.2093C12.9436 13.5181 13.858 13.1376 14.8298 13.1376C15.8016 13.1376 16.716 13.5181 17.4029 14.2093C18.0899 14.9005 18.4681 15.8204 18.4681 16.7982C18.4681 17.7759 18.0899 18.6959 17.4029 19.387ZM9.2766 19.6881H3.7234V2.73394H17.1277V11.0183C17.1277 11.1243 17.2138 11.211 17.3191 11.211H18.6596C18.7649 11.211 18.8511 11.1243 18.8511 11.0183V1.77064C18.8511 1.34438 18.5088 1 18.0851 1H2.76596C2.34229 1 2 1.34438 2 1.77064V20.6514C2 21.0776 2.34229 21.422 2.76596 21.422H9.2766C9.38192 21.422 9.46809 21.3353 9.46809 21.2294V19.8807C9.46809 19.7748 9.38192 19.6881 9.2766 19.6881Z" fill="black"/>
<path d="M15.9512 14.9893C16.2333 14.6863 16.7075 14.6693 17.0107 14.9512C17.3139 15.2333 17.3308 15.7075 17.0488 16.0107L14.8115 18.415C14.6387 18.6048 14.4039 18.7201 14.1562 18.7451C13.9086 18.77 13.6561 18.7048 13.4502 18.5566L12.5615 17.917C12.2257 17.6749 12.1498 17.2062 12.3916 16.8701C12.6336 16.5343 13.1024 16.4575 13.4385 16.6992L13.9893 17.0957L15.9512 14.9893Z" fill="black"/>
<path d="M15.0833 9.99999H5.91667C5.65817 10.0013 5.44061 9.91033 5.264 9.72721C5.08739 9.54409 4.99939 9.3182 5 9.04955C5.00061 8.78089 5.08861 8.55532 5.264 8.37283C5.43939 8.19035 5.65695 8.0991 5.91667 8.0991H15.0833C15.3431 8.0991 15.5606 8.19035 15.736 8.37283C15.9114 8.55532 15.9994 8.78089 16 9.04955C16.0006 9.3182 15.9129 9.54377 15.7369 9.72626C15.5609 9.90874 15.3431 9.99999 15.0833 9.99999Z" fill="black"/>
<path d="M15.0833 6.90088H5.91667C5.65817 6.90215 5.44061 6.81122 5.264 6.62811C5.08739 6.44499 4.99939 6.2191 5 5.95044C5.00061 5.68178 5.08861 5.45621 5.264 5.27373C5.43939 5.09124 5.65695 5 5.91667 5H15.0833C15.3431 5 15.5606 5.09124 15.736 5.27373C15.9114 5.45621 15.9994 5.68178 16 5.95044C16.0006 6.2191 15.9129 6.44467 15.7369 6.62716C15.5609 6.80964 15.3431 6.90088 15.0833 6.90088Z" fill="black"/>
</svg>
